symbols/web/aspect_ratio/materialsymbolsoutlined/aspect_ratio_wght600gradN25_24px.svg

<svg xmlns="http://www.w3.org/2000/svg" height="24" width="24"><path d="M13.85 16.7h4.825v-4.825H16.8v2.95h-2.95Zm-8.525-4.575H7.2v-2.95h2.95V7.3H5.325ZM4.3 20.25q-1.05 0-1.787-.738-.738-.737-.738-1.787V6.275q0-1.05.738-1.788Q3.25 3.75 4.3 3.75h15.4q1.05 0 1.788.737.737.738.737 1.788v11.45q0 1.05-.737 1.787-.738.738-1.788.738Zm0-2.525h15.4V6.275H4.3v11.45Zm0 0V6.275v11.45Z"/></svg>

<svg xmlns="http://www.w3.org/2000/svg" height="24" width="24"><path d="M5.325 12.125H7.2V9.175H10.15V7.3H5.325ZM13.85 16.7H18.675V11.875H16.8V14.825H13.85ZM4.3 20.25Q3.25 20.25 2.513 19.512Q1.775 18.775 1.775 17.725V6.275Q1.775 5.225 2.513 4.487Q3.25 3.75 4.3 3.75H19.7Q20.75 3.75 21.488 4.487Q22.225 5.225 22.225 6.275V17.725Q22.225 18.775 21.488 19.512Q20.75 20.25 19.7 20.25ZM4.3 17.725Q4.3 17.725 4.3 17.725Q4.3 17.725 4.3 17.725V6.275Q4.3 6.275 4.3 6.275Q4.3 6.275 4.3 6.275Q4.3 6.275 4.3 6.275Q4.3 6.275 4.3 6.275V17.725Q4.3 17.725 4.3 17.725Q4.3 17.725 4.3 17.725ZM4.3 17.725H19.7Q19.7 17.725 19.7 17.725Q19.7 17.725 19.7 17.725V6.275Q19.7 6.275 19.7 6.275Q19.7 6.275 19.7 6.275H4.3Q4.3 6.275 4.3 6.275Q4.3 6.275 4.3 6.275V17.725Q4.3 17.725 4.3 17.725Q4.3 17.725 4.3 17.725Z"/></svg>
